X:351
T: Hongyanyan de qizhi
N: C1852
O: China, Qinghai Minhe Guanding
S: I, 220]
N: Hui
R: Xiaodiao, Yanxiqu]
M: 3/4
L: 1/16
K: D
A4B4A2F2 | A4B8- | B8F4
A4B4B2d2 | A2F2F4z4
F4A4B2d2 | B4A2FAA2F2 | E4D2B,2D4 | E12- | E8F4
E2F2E2D2B,2A,2 | B,4z8

